apps/mobile/assets/icons/phosphor/arrow-fat-down.svg

<svg
  height="32"
  viewBox="0 0 256 256"
  width="32"
  xmlns="http://www.w3.org/2000/svg"
>
  <path
    d="m231.39 132.94a8 8 0 0 0 -7.39-4.94h-40v-80a16 16 0 0 0 -16-16h-80a16 16 0 0 0 -16 16v80h-40a8 8 0 0 0 -5.66 13.66l96 96a8 8 0 0 0 11.32 0l96-96a8 8 0 0 0 1.73-8.72zm-103.39 87.75-76.69-76.69h28.69a8 8 0 0 0 8-8v-88h80v88a8 8 0 0 0 8 8h28.69z"
  />
</svg>

<svg xmlns="http://www.w3.org/2000/svg" width="32" height="32" fill="#000000" viewBox="0 0 256 256"><path d="M231.39,132.94A8,8,0,0,0,224,128H184V48a16,16,0,0,0-16-16H88A16,16,0,0,0,72,48v80H32a8,8,0,0,0-5.66,13.66l96,96a8,8,0,0,0,11.32,0l96-96A8,8,0,0,0,231.39,132.94ZM128,220.69,51.31,144H80a8,8,0,0,0,8-8V48h80v88a8,8,0,0,0,8,8h28.69Z"></path></svg>
